X: 38877
T: Sunny Banks, The
R: reel
M: 4/4
K: Dmajor
AF (3FFF d2 cA|BGAF GFGB|AF (3FFF dBcA|BGAF DEFG|
AF ~F2 d2 cA|BFAF (3GGG GB|AF ~F2 d2 cA|BFAF d3||
fded cA A2|fdef gbag|(3fgf ed cA (3AAA|BFAF D3 e|
(3fff ed cA (3AAA|(3ffd ef g2 ag|fged cA ~A2|BGAF DEFG||
A>F ~F2 d2 c>A|B>FA>F d3 e||
f>ge>d c>A ~A2|B>GA>F D>EF>G||

